X:1
T:If God Does Not Build Up the House
T:Tune: John Stainer, 1875 Text under copyright; for copyrighted material see Psalter Hymnal 127
T:88 88 88 CREDO www.hymnary.org/text/if_god_does_not_build_up_the_house
T:If God Does Not Build Up the House
T:This music is in the public domain. You may freely use this score for personal and congregational worship. If you reproduce the score, please credit Hymnary.org as the source. 
T:This music is in the public domain. You may freely use this score for personal and congregational worship. If you reproduce the score, please credit Hymnary.org as the source. 
Z:This music is in the public domain. You may freely use this score for personal and congregational worship. If you reproduce the score, please credit Hymnary.org as the source.
%%score ( 1 2 ) ( 3 4 )
L:1/8
M:4/4
K:Db
V:1 treble nm="SOPRANO ALTO" snm="S. A."
V:2 treble 
V:3 bass nm="TENOR BASS" snm="T. B."
V:4 bass 
V:1
 F2 | F2 F2 F2 B2 | =A2 B2 F2 E2 | D2 F2 A2 G2 | F2 E2 D2 D2 | G3 G F2 D2 | B2 B2 A2 D2 | %7
 E2 G2 G2 F2 | D2 E2 F4 ||[K:Bb] F2 FF B3 B |1 A2 G2 F2 F2 | B3 B B2 c2 | d2 c2 B2 x2 |] %13
V:2
 F2 | C2 C2 F2 F2 | E2 D2 C2 =A,2 | B,2 D2 F2 E2 | D2 C2 A,2 D2 | D3 D D2 D2 | D2 D2 D2 D2 | %7
 B,2 E2 E2 D2 | B,2 C2 C4 ||[K:Bb] F2 FF x3 D |1 F2 E2 D2 D2 | F3 F E2 =E2 | F2 FE D2 x2 |] %13
V:3
 F,2 | =A,2 A,2 B,2 B,2 | C2 F,2 F,2 F,2 | F,2 B,2 B,2 B,2 | A,2 G,2 F,2 F,2 | G,3 G, A,2 F,2 | %6
 G,2 G,2 A,2 A,2 | B,2 B,2 A,2 A,2 | B,2 B,2 =A,4 ||[K:Bb] F,2 F,F, B,3 B, |1 B,2 G,A, B,2 B,2 | %11
 D3 D B,2 B,2 | B,2 A,2 F,2 x2 |] %13
V:4
 F,2 | F,2 E,2 D,2 D,2 | C,2 B,,2 =A,,2 F,,2 | B,,2 B,,2 G,,2 G,,2 | A,,2 A,,2 D,2 D,2 | %5
 B,,3 B,, A,,2 A,,2 | G,,2 G,2 F,2 F,2 | G,2 E,2 C,2 D,2 | G,2 G,2 F,4 ||[K:Bb] F,2 F,F, B,3 G, |1 %10
 D,2 E,2 B,,2 B,2 | _A,3 A, G,2 _G,2 | F,2 F,2 B,,2 x2 |] %13

